symbols/web/wifi/materialsymbolsrounded/wifi_grad200_20px.svg

<svg xmlns="http://www.w3.org/2000/svg" height="20" width="20"><path d="M4.292 12.875q-.521-.521-.511-1.229.011-.708.573-1.084Q5.583 9.75 7 9.26q1.417-.489 3-.489 1.562 0 2.979.479t2.646 1.271q.563.375.604 1.073.042.698-.521 1.26-.437.438-1.166.49-.73.052-1.396-.344-.688-.396-1.479-.583-.792-.188-1.667-.188t-1.667.177q-.791.177-1.5.594-.645.375-1.375.344-.729-.032-1.166-.469Zm-4.98-4.937q-.5-.5-.489-1.209.01-.708.552-1.125Q1.5 3.833 4.198 2.844q2.698-.99 5.802-.99 3.104 0 5.802 1 2.698 1 4.823 2.771.542.417.542 1.135 0 .719-.521 1.24-.458.458-1.188.49-.729.031-1.27-.428-1.667-1.291-3.74-2.02-2.073-.73-4.448-.73-2.375 0-4.448.719-2.073.719-3.74 2.011-.541.437-1.291.396-.75-.042-1.209-.5ZM10 19.771q-1.083 0-1.833-.75t-.75-1.833q0-1.084.75-1.834t1.833-.75q1.083 0 1.833.75t.75 1.834q0 1.083-.75 1.833t-1.833.75Z"/></svg>

<svg xmlns="http://www.w3.org/2000/svg" height="20" width="20"><path d="M4.292 12.875Q3.771 12.354 3.781 11.646Q3.792 10.938 4.354 10.562Q5.583 9.75 7 9.26Q8.417 8.771 10 8.771Q11.562 8.771 12.979 9.25Q14.396 9.729 15.625 10.521Q16.188 10.896 16.229 11.594Q16.271 12.292 15.708 12.854Q15.271 13.292 14.542 13.344Q13.812 13.396 13.146 13Q12.458 12.604 11.667 12.417Q10.875 12.229 10 12.229Q9.125 12.229 8.333 12.406Q7.542 12.583 6.833 13Q6.188 13.375 5.458 13.344Q4.729 13.312 4.292 12.875ZM-0.688 7.938Q-1.188 7.438 -1.177 6.729Q-1.167 6.021 -0.625 5.604Q1.5 3.833 4.198 2.844Q6.896 1.854 10 1.854Q13.104 1.854 15.802 2.854Q18.5 3.854 20.625 5.625Q21.167 6.042 21.167 6.76Q21.167 7.479 20.646 8Q20.188 8.458 19.458 8.49Q18.729 8.521 18.188 8.062Q16.521 6.771 14.448 6.042Q12.375 5.312 10 5.312Q7.625 5.312 5.552 6.031Q3.479 6.75 1.812 8.042Q1.271 8.479 0.521 8.438Q-0.229 8.396 -0.688 7.938ZM10 19.771Q8.917 19.771 8.167 19.021Q7.417 18.271 7.417 17.188Q7.417 16.104 8.167 15.354Q8.917 14.604 10 14.604Q11.083 14.604 11.833 15.354Q12.583 16.104 12.583 17.188Q12.583 18.271 11.833 19.021Q11.083 19.771 10 19.771Z"/></svg>
